X:277
T:Sae Braely as I was Kissed Yestre’en. RH.277
T:O,As I Was Kissed Yest’re’en,aka. RH.277
R:air
S:Rev.R.Harrison’s MS,c1815,Cumbria
N:I changed the key ffrom G to Ador. And R: from air to jig. PJH.
O:England
A:Temple Sowerby,Cumbria
Z:vmp.Simon Wilson. Review PJH, 2008.
M:6/8
L:1/8
Q:3/8=120
K:Ador
“Key D in MS”E|ABA ABd|e/f/gB A2c|BAB GAB|BAB G2G|!
cBc ded|efe a2g|edc Bcd|e2A A2:|!
|:f/g/|a2A ABA|a2A A2f|g2G GAG|BAB G2B|!
cBc ded|efe a2g|edB ABd|e2A A2:|

